X: 20251
T: Joe Kilmurray's
R: slip jig
M: 9/8
K: Eminor
|:BGE EDE G2A|Bee edB dBA|BGE EDE G2A|Bcd AdG FED:|
|:ded cAF GA/B/c|ded def gfe|ded cAF G2A|Bcd AdG FED:|
|:e3ede f2d|efe edf afd|efe ede f2d|edB AdG FED:|
|:B3 edB G2A|Bee efg fed|Bee edB G2A|Bcd AdG FED:|

